packages/icons/svg/Fill/video-off.svg

<svg width="24" height="24" viewBox="0 0 24 24" fill="none" xmlns="http://www.w3.org/2000/svg">
<g id="Icon/Fill/video-off">
<path id="Mask" fill-rule="evenodd" clip-rule="evenodd" d="M14.9999 13.5859L16.9999 15.5859L20.7069 19.2929C21.0979 19.6839 21.0979 20.3159 20.7069 20.7069C20.5119 20.9019 20.2559 20.9999 19.9999 20.9999C19.7439 20.9999 19.4879 20.9019 19.2929 20.7069L16.3859 17.7999L14.9309 16.3449L5.58591 6.9999L3.82591 5.2399L3.29291 4.7069C2.90191 4.3159 2.90191 3.6839 3.29291 3.2929C3.68391 2.9019 4.31591 2.9019 4.70691 3.2929L6.41391 4.9999L8.41391 6.9999L14.9999 13.5859ZM21.0116 7.1454C20.3856 6.8734 19.6596 6.9914 19.1606 7.4514L16.9996 9.4514V7.9994C16.9996 6.3454 15.6546 4.9994 13.9996 4.9994H7.82761L9.12061 6.2924L15.7066 12.8784L17.7066 14.8784L19.7176 16.8894C19.9096 16.9614 20.1136 16.9994 20.3196 16.9994C20.5526 16.9994 20.7876 16.9524 21.0116 16.8544C21.6206 16.5884 21.9996 16.0194 21.9996 15.3704V8.6294C21.9996 7.9804 21.6206 7.4114 21.0116 7.1454ZM14.2235 17.0517L4.87851 7.7067L3.11951 5.9477L2.97351 5.8017C2.37851 6.3507 1.99951 7.1287 1.99951 7.9997V15.9997C1.99951 17.6547 3.34551 18.9997 4.99951 18.9997H13.9995C14.6165 18.9997 15.1885 18.8127 15.6645 18.4927L14.2235 17.0517Z" fill="#000000"/>
</g>
</svg>

<svg fill="none" height="24" viewBox="0 0 24 24" width="24" xmlns="http://www.w3.org/2000/svg"><path clip-rule="evenodd" d="m15 13.586 2 2 3.707 3.707c.391.391.391 1.023 0 1.414-.195.195-.451.293-.707.293s-.512-.098-.707-.293l-2.907-2.907-1.455-1.455-9.345-9.34499-1.76-1.76-.533-.533c-.391-.391-.391-1.023 0-1.414s1.023-.391 1.414 0l1.707 1.707 2 2zm6.0117-6.44062c-.626-.272-1.352-.154-1.851.306l-2.161 2v-1.452c0-1.654-1.345-3-3-3h-6.17201l1.293 1.293 6.58601 6.58602 2 2 2.011 2.011c.192.072.396.11.602.11.233 0 .468-.047.692-.145.609-.266.988-.835.988-1.484v-6.74102c0-.649-.379-1.218-.988-1.484zm-6.7881 9.90642-9.345-9.34496-1.759-1.759-.146-.146c-.595.549-.974 1.327-.974 2.198v7.99996c0 1.655 1.346 3 3 3h9c.617 0 1.189-.187 1.665-.507z" fill="#6b7280" fill-rule="evenodd"/></svg>
